packages/core/src/svgs/tokens/branded/XPNET.svg

<svg width="24" height="24" viewBox="0 0 24 24" fill="none" xmlns="http://www.w3.org/2000/svg">
<path d="M15.5627 21.5219L13.4126 19.347C13.2698 19.2005 13.0993 19.0842 12.9109 19.0045C12.7225 18.9251 12.5201 18.8842 12.3156 18.8842C12.1112 18.8842 11.9087 18.9251 11.7203 19.0045C11.5321 19.0842 11.3614 19.2005 11.2188 19.347L9.06873 21.5219C8.91983 21.6733 8.74229 21.7936 8.54646 21.8756C8.35064 21.9577 8.14043 22 7.92809 22C7.71577 22 7.50556 21.9577 7.30972 21.8756C7.11389 21.7936 6.93635 21.6733 6.78745 21.5219L5.74994 20.4719L9.03749 17.1345C9.4641 16.6983 9.97365 16.3518 10.536 16.1151C11.0983 15.8786 11.7024 15.7566 12.3126 15.7566C12.9227 15.7566 13.5266 15.8786 14.0891 16.1151C14.6515 16.3518 15.1609 16.6983 15.5876 17.1345L18.8752 20.4719L17.8377 21.5219C17.6892 21.6732 17.5122 21.7933 17.3169 21.8753C17.1216 21.9573 16.9119 21.9994 16.7002 21.9994C16.4883 21.9994 16.2786 21.9573 16.0833 21.8753C15.888 21.7933 15.711 21.6732 15.5627 21.5219ZM3.53115 18.2532L2.48113 17.2157C2.32977 17.0668 2.20955 16.8892 2.1275 16.6935C2.04544 16.4976 2.00317 16.2873 2.00317 16.075C2.00317 15.8627 2.04544 15.6525 2.1275 15.4567C2.20955 15.2608 2.32977 15.0833 2.48113 14.9344L4.65617 12.7906C5.28118 12.1781 5.28118 11.1968 4.65617 10.5906L2.48113 8.44682C2.32977 8.29791 2.20955 8.12037 2.1275 7.92454C2.04544 7.72871 2.00317 7.5185 2.00317 7.30617C2.00317 7.09385 2.04544 6.88364 2.1275 6.68781C2.20955 6.49197 2.32977 6.31443 2.48113 6.16553L3.53115 5.12801L6.87495 8.41557C7.31094 8.84167 7.65736 9.35066 7.89389 9.91242C8.13041 10.4743 8.25224 11.0778 8.25224 11.6875C8.25224 12.2971 8.13041 12.9006 7.89389 13.4625C7.65736 14.0244 7.31094 14.5334 6.87495 14.9594L3.53115 18.2532ZM11.6875 8.25306C10.5 8.25306 9.31244 7.7968 8.41247 6.87804L5.12493 3.53423L6.16245 2.48422C6.31134 2.33285 6.48889 2.21264 6.68471 2.13058C6.88056 2.04852 7.09075 2.00626 7.30308 2.00626C7.51542 2.00626 7.72563 2.04852 7.92146 2.13058C8.11728 2.21264 8.29482 2.33285 8.44372 2.48422L10.5875 4.66551C11.1937 5.27802 12.1813 5.27802 12.7875 4.66551L14.9313 2.47798C15.0802 2.32661 15.2577 2.20639 15.4536 2.12432C15.6494 2.04226 15.8596 2 16.0719 2C16.2842 2 16.4945 2.04226 16.6904 2.12432C16.8861 2.20639 17.0637 2.32661 17.2126 2.47798L18.2501 3.54049L14.9625 6.87804C14.5341 7.31147 14.0241 7.65604 13.462 7.892C12.9001 8.12796 12.2971 8.25066 11.6875 8.25306ZM20.4689 18.2532L17.1251 14.9656C16.6889 14.5391 16.3424 14.0295 16.1057 13.4672C15.8692 12.9047 15.7473 12.3008 15.7473 11.6906C15.7473 11.0804 15.8692 10.4765 16.1057 9.91403C16.3424 9.35168 16.6889 8.84221 17.1251 8.41557L20.4689 5.12801L21.5189 6.16553C21.6702 6.31443 21.7906 6.49197 21.8725 6.68781C21.9546 6.88364 21.9969 7.09385 21.9969 7.30617C21.9969 7.5185 21.9546 7.72871 21.8725 7.92454C21.7906 8.12037 21.6702 8.29791 21.5189 8.44682L19.3439 10.5968C18.7188 11.2031 18.7188 12.1907 19.3439 12.7906L21.5189 14.9407C21.6702 15.0896 21.7906 15.2671 21.8725 15.4629C21.9546 15.6588 21.9969 15.8689 21.9969 16.0813C21.9969 16.2936 21.9546 16.5039 21.8725 16.6996C21.7906 16.8955 21.6702 17.0731 21.5189 17.222L20.4689 18.2532Z" fill="#E22440"/>
</svg>

<svg xmlns="http://www.w3.org/2000/svg" width="24" height="24" fill="none" viewBox="0 0 24 24">
    <path fill="#E22440" d="m15.563 21.522-2.15-2.175a1.54 1.54 0 0 0-1.693-.343c-.188.08-.359.197-.501.343l-2.15 2.175a1.6 1.6 0 0 1-2.282 0l-1.037-1.05 3.287-3.338a4.583 4.583 0 0 1 6.55 0l3.288 3.338-1.037 1.05a1.595 1.595 0 0 1-2.275 0M3.53 18.253l-1.05-1.037a1.6 1.6 0 0 1 0-2.282l2.175-2.143a1.525 1.525 0 0 0 0-2.2L2.481 8.447a1.6 1.6 0 0 1 0-2.281l1.05-1.038 3.344 3.288a4.576 4.576 0 0 1 0 6.543zm8.156-10a4.57 4.57 0 0 1-3.275-1.375L5.125 3.534l1.037-1.05a1.6 1.6 0 0 1 2.282 0l2.143 2.182a1.547 1.547 0 0 0 2.2 0l2.144-2.188a1.6 1.6 0 0 1 2.282 0L18.25 3.54l-3.287 3.338a4.63 4.63 0 0 1-3.275 1.375m8.782 10-3.344-3.287a4.58 4.58 0 0 1 0-6.55l3.344-3.288 1.05 1.038a1.6 1.6 0 0 1 0 2.28l-2.175 2.15a1.52 1.52 0 0 0 0 2.195l2.175 2.15a1.6 1.6 0 0 1 0 2.281z"/>
</svg>
